X:1
T: Miss Margaret McLaren
C:Muriel A Johnstone
R:Strathspey
%Q: 128
K:A
M:4/4
L:1/16
E2|A6 e2 c2A2 E2C2|B,2B2 d3c ((3BAG) ((3FED) |C2E2 A2e2 c2A2 E2C2|DB3 G3E E2A2 A2E2|
A6 e2 c2A2 E2C2|B,2B2 d3c ((3BAG) ((3FED) |C2E2 A2e2 c2A2 E2C2|DB3 G3E E2A2 A2B2|
c6 e2 c2B2 B2c2|A6 c2 A2G2 G2A2|F6 A2 E2A2 c2e2|DB3 d3c B6d2|
c6 e2 c2B2 B2c2|A6 c2 A2G2 G2A2|F6 A2 e2c2 A2E2|DB3 G3E E2A2 A2:|
